public/avatar/shoe/78.svg

<svg xmlns:xlink="http://www.w3.org/1999/xlink" height="38.3" width="36.05" xmlns="http://www.w3.org/2000/svg"><use height="19.35" transform="translate(12.85 9.65)" width="18.3" xlink:href="#a"/><defs><use height="19.35" width="18.3" xlink:href="#b" id="a"/><g id="b"><path d="m13.4 3.85 2.25.3q.85.35 1.35 2.1.5 1.65.15 3-1.3 5.55-2.9 4.25-.35-.3-1.65 1.5-4.65 4.2-10.05 3.15-2.8-.55-2.5-4.4l.85-3.7q-.05-.55.5-1.4L3 5.8q.35-.4 1.15-.7 1.8-5.3 5-5.1 3.75.3 4.25 3.85" fill="#9c0c15" fill-rule="evenodd" transform="translate(.5 .5)"/><path d="M13.4 3.85Q12.9.3 9.15 0q-3.2-.2-5 5.1-.8.3-1.15.7L1.4 8.65q-.55.85-.5 1.4l-.85 3.7q-.3 3.85 2.5 4.4Q7.95 19.2 12.6 15q1.3-1.8 1.65-1.5 1.6 1.3 2.9-4.25.35-1.35-.15-3-.5-1.75-1.35-2.1l-2.25-.3Z" fill="none" stroke="#700" stroke-linecap="round" stroke-linejoin="round" transform="translate(.5 .5)"/><path d="M4.45 5.7q.2-1.35.9-2.75Q6.65.2 9.05.1q2.45-.15 3.65 2.65.8 1.85.8 3.85l-9.05-.9" fill="#e93a35" fill-rule="evenodd" transform="translate(.5 .5)"/><path d="m12.9 3.85 2.55.4q2.2 1.1 1.4 4.6-.95 4.4-1.65 4.35l.1-1.7q.1-1.35-.55.05L12.9 14.5q-2.75 2.25-5.95 3l-5.15-.25Q.05 16.4.5 13.35l1-3.8 9.35.85q2.1-5.8 2.05-6.55" fill="#c00b1d" fill-rule="evenodd" transform="translate(.5 .5)"/><path d="M10.6.75q1.65.4 2.9 4.6.25.8-1 2.6l-3.35 4.3q-3.6 3.4-6.05 2.95-.55-.05-1.15-1.05-.6-1.2-.45-2.45.25-1.8 1.85-3.8l1.6-2.4q.3-2.1 2.1-3.7Q8.85.3 10.6.75" fill="#e1001a" fill-rule="evenodd" transform="translate(.5 .5)"/><path d="m2.35 9.35 2.2-3q3-1.05 8.3.4L9.9 9.85Q6.65 8.9 4.2 9l-1.85.35" fill="#ffdc00" fill-rule="evenodd" transform="translate(.5 .5)"/><path d="M4.75 6.7q-.25.05-1.05 1.75 3.05-.1 6.05.75l1.4-2-6.4-.5m7.9-.75q.4.15.5.55 0 1.25-2.85 3.9l-.55.15q-3.1-1-5.45-.85l-1.7.3q-.4.15-.7-.25-.2-.55.1-.85l.9-1.7q.85-1.55 1.55-1.8 3.1-1.1 8.2.55" fill="#f8b100" fill-rule="evenodd" transform="translate(.5 .5)"/><path d="M11 8.15 11.7 7l-4.05-.5q-.45-.05.3-.6 4.45.35 4.6.65.05.4-1 1.9l-.75.6q-.35-.2.2-.9" fill="#fef0bc" fill-rule="evenodd" transform="translate(.5 .5)"/><path d="m13.15 3.9-.4-1.25 2.1 1.2q.6.45-.7 1.45-.45-.15-1-1.4" fill="#9c0c15" fill-rule="evenodd" transform="translate(.5 .5)"/><path d="M10.35 2.65q1.3.55.45 1.6-.8.9-1.85.35l-.55-.3-1.05.25q-1.2-.25-1.1-1.2.25-1 1.25-1-.15-.35.1-.9Q8.3.35 9.5.9q1.15.7.5 1.6l.35.15" fill="#ffd400" fill-rule="evenodd" transform="translate(.5 .5)"/></g></defs></svg>

<?xml version="1.0" encoding="UTF-8" standalone="no"?>
<svg xmlns:xlink="http://www.w3.org/1999/xlink" height="38.3px" width="36.05px" xmlns="http://www.w3.org/2000/svg">
  <g transform="matrix(1.0, 0.0, 0.0, 1.0, 23.8, 14.85)">
    <use height="19.35" transform="matrix(1.0, 0.0, 0.0, 1.0, -10.95, -5.2)" width="18.3" xlink:href="#sprite0"/>
  </g>
  <defs>
    <g id="sprite0" transform="matrix(1.0, 0.0, 0.0, 1.0, 0.5, 0.5)">
      <use height="19.35" transform="matrix(1.0, 0.0, 0.0, 1.0, -0.5, -0.5)" width="18.3" xlink:href="#shape0"/>
    </g>
    <g id="shape0" transform="matrix(1.0, 0.0, 0.0, 1.0, 0.5, 0.5)">
      <path d="M13.4 3.85 L15.65 4.15 Q16.5 4.5 17.0 6.25 17.5 7.9 17.15 9.25 15.85 14.8 14.25 13.5 13.9 13.2 12.6 15.0 7.95 19.2 2.55 18.15 -0.25 17.6 0.05 13.75 L0.9 10.05 Q0.85 9.5 1.4 8.65 L3.0 5.8 Q3.35 5.4 4.15 5.1 5.95 -0.2 9.15 0.0 12.9 0.3 13.4 3.85" fill="#9c0c15" fill-rule="evenodd" stroke="none"/>
      <path d="M13.4 3.85 Q12.9 0.3 9.15 0.0 5.95 -0.2 4.15 5.1 3.35 5.4 3.0 5.8 L1.4 8.65 Q0.85 9.5 0.9 10.05 L0.05 13.75 Q-0.25 17.6 2.55 18.15 7.95 19.2 12.6 15.0 13.9 13.2 14.25 13.5 15.85 14.8 17.15 9.25 17.5 7.9 17.0 6.25 16.5 4.5 15.65 4.15 L13.4 3.85 Z" fill="none" stroke="#770000" stroke-linecap="round" stroke-linejoin="round" stroke-width="1.0"/>
      <path d="M4.45 5.7 Q4.65 4.35 5.35 2.95 6.65 0.2 9.05 0.1 11.5 -0.05 12.7 2.75 13.5 4.6 13.5 6.6 L4.45 5.7" fill="#e93a35" fill-rule="evenodd" stroke="none"/>
      <path d="M12.9 3.85 L15.45 4.25 Q17.65 5.35 16.85 8.85 15.9 13.25 15.2 13.2 L15.3 11.5 Q15.4 10.15 14.75 11.55 L12.9 14.5 Q10.15 16.75 6.95 17.5 L1.8 17.25 Q0.05 16.4 0.5 13.35 L1.5 9.55 10.85 10.4 Q12.95 4.6 12.9 3.85" fill="#c00b1d" fill-rule="evenodd" stroke="none"/>
      <path d="M10.6 0.75 Q12.25 1.15 13.5 5.35 13.75 6.15 12.5 7.95 L9.15 12.25 Q5.55 15.65 3.1 15.2 2.55 15.15 1.95 14.15 1.35 12.95 1.5 11.7 1.75 9.9 3.35 7.9 L4.95 5.5 Q5.25 3.4 7.05 1.8 8.85 0.3 10.6 0.75" fill="#e1001a" fill-rule="evenodd" stroke="none"/>
      <path d="M2.35 9.35 L4.55 6.35 Q7.55 5.3 12.85 6.75 L9.9 9.85 Q6.65 8.9 4.2 9.0 L2.35 9.35" fill="#ffdc00" fill-rule="evenodd" stroke="none"/>
      <path d="M4.75 6.7 Q4.5 6.75 3.7 8.45 6.75 8.35 9.75 9.2 L11.15 7.2 4.75 6.7 M12.65 5.95 Q13.05 6.1 13.15 6.5 13.15 7.75 10.3 10.4 L9.75 10.55 Q6.65 9.55 4.3 9.7 L2.6 10.0 Q2.2 10.15 1.9 9.75 1.7 9.2 2.0 8.9 L2.9 7.2 Q3.75 5.65 4.45 5.4 7.55 4.3 12.65 5.95" fill="#f8b100" fill-rule="evenodd" stroke="none"/>
      <path d="M11.0 8.15 L11.7 7.0 7.65 6.5 Q7.2 6.45 7.95 5.9 12.4 6.25 12.55 6.55 12.6 6.95 11.55 8.45 L10.8 9.05 Q10.45 8.85 11.0 8.15" fill="#fef0bc" fill-rule="evenodd" stroke="none"/>
      <path d="M13.15 3.9 L12.75 2.65 14.85 3.85 Q15.45 4.3 14.15 5.3 13.7 5.15 13.15 3.9" fill="#9c0c15" fill-rule="evenodd" stroke="none"/>
      <path d="M10.35 2.65 Q11.65 3.2 10.8 4.25 10.0 5.15 8.95 4.6 L8.4 4.3 7.35 4.55 Q6.15 4.3 6.25 3.35 6.5 2.35 7.5 2.35 7.35 2.0 7.6 1.45 8.3 0.35 9.5 0.9 10.65 1.6 10.0 2.5 L10.35 2.65" fill="#ffd400" fill-rule="evenodd" stroke="none"/>
    </g>
  </defs>
</svg>
